Newaita-dark/actions/24/color-picker.svg

<?xml version="1.0" encoding="UTF-8"?>
<svg xmlns="http://www.w3.org/2000/svg" xmlns:xlink="http://www.w3.org/1999/xlink" width="24pt" height="24pt" viewBox="0 0 24 24" version="1.1">
<g id="surface1">
<path style=" stroke:none;fill-rule:nonzero;fill:rgb(25.882354%,64.705884%,96.078432%);fill-opacity:1;" d="M 11.90625 1.179688 C 8.929688 6.140625 5.953125 12.09375 5.953125 17.054688 C 5.953125 20.03125 7.9375 23.011719 11.90625 23.011719 C 15.875 23.011719 17.859375 20.03125 17.859375 17.054688 C 17.859375 12.09375 14.535156 5.597656 11.90625 1.179688 Z M 15.011719 14.605469 C 15.820312 15.332031 16.324219 16.382812 16.324219 17.554688 C 16.324219 19.753906 14.554688 21.527344 12.355469 21.527344 C 11.652344 21.527344 10.992188 21.34375 10.417969 21.027344 C 10.484375 21.027344 10.550781 21.03125 10.617188 21.03125 C 13.230469 21.03125 15.332031 18.925781 15.332031 16.316406 C 15.332031 15.710938 15.21875 15.136719 15.011719 14.605469 Z M 15.011719 14.605469 "/>
</g>
</svg>

<svg xmlns="http://www.w3.org/2000/svg" width="32" height="32" viewBox="0 0 24 24"><path d="M11.906 1.18C8.93 6.14 5.953 12.094 5.953 17.055c0 2.976 1.984 5.957 5.953 5.957 3.969 0 5.953-2.98 5.953-5.957 0-4.961-3.324-11.457-5.953-15.875zm3.106 13.425a3.948 3.948 0 0 1 1.312 2.95c0 2.199-1.77 3.972-3.969 3.972a4.004 4.004 0 0 1-1.937-.5c.066 0 .133.004.2.004a4.705 4.705 0 0 0 4.714-4.715 4.69 4.69 0 0 0-.32-1.71zm0 0" fill="#42a5f5"/></svg>
